!!!OTL: VEILE ROSE BLIAEMELEIN
!!!ARE: Europa, Mitteleuropa, Deutschland; France, Elsass
!!!SCT: E1262
!!!YEM: Copyright 1995, estate of Helmut Schaffrath.
**kern
*ICvox
*Ivox
*M2/4
*k[f#]
*G:
=1
{8.g
16a
8b
8cc
=2
8.dd
16ee
8dd}
{8b
=3
8.cc
16b
8cc
8dd
=4
8.b
16a
8b}
{8d
=5
8g
8g
8a
8a
=6
8b
8dd
8dd}
{8d
=7
8g
8g
8a
8a
=8
8b
8dd
4dd}
=9
{8b
8dd
4g
=10
8b
8dd
4g}
=11
{8a
8a
8b
8b
=12
8dd
8dd
4g}
==
!!!AGN: Ansinge -, Brauchtums - Lied, Kirchen - Fest, Johannis - Tag
!!!ONB: ESAC (Essen Associative Code) Database: ERK3
!!!AMT: simple duple
!!!AIN: vox
!!!EED: Helmut Schaffrath
!!!EEV: 1.0
*-
